X:1
T:The Work Must Go On
T:Samuel W. Beazley
T:The Work Must Go On
T:Public Domain
T:Public Domain
T:Public Domain
C:Samuel W. Beazley
Z:Public Domain
%%score ( 1 2 ) 3
L:1/8
M:4/4
K:Ab
V:1 treble 
V:2 treble 
V:3 bass 
V:1
 EE | [Ac]2 [Gc]2 [Fc]2 [Ec][Ec] | [Fc]2 [Ac]2 [Ec]3 [Ec] | [Gd][Ad][Bd][Ad] [Gd]2 [Fd][Gd] | %4
w: 1.~A glad|mes- sage rings thro’ the|world to- day, It|e- choes thro’ the coun- tries a-|
w: 2.~There are|ma- ny souls that were|dark as night, All|sha- dowed by the black- ness of|
w: 3.~There are|hun- gry hearts that were|starved for bread, But|Je- sus has sup- plied ev- ery|
w: 4.~And the|deaf shall hear, and the|blind eyes see; The|Word of God shall quick- en and|
 [Ec]6 EE | [Ac]2 [Gc]2 [Fc][Fc][Fc][Fc] | [Fc]2 [Ac]2 [Ec]2 [Ec][Ec] | %7
w: far, That the|ris- ing Su- n, with ce-|les- tial ray, Scat- ters|
w: sin, That are|glow- ing no- w with im-|mor- tal light, Since the|
w: need; For on|Him, the Bre- ad of Life,|they have fed Till their|
w: glow; Christ the|King of earth and Heav- en|still shall be Till His|
 [F=d] [Fd]2 [Gd] [Ad]2 [Fd]2 | (z2 [Bda]2 [Bdg]2) ||"^Refrain" [Ed][Ed] | %10
w: heal- ing wher- e’er men|||
w: glo- ry of God shone|||
w: spir- its are glad in-||The good|
w: glo- ry each heart shall|||
 [Ec]2 [Fc][Ac] [Ec]2 (FA) | [Gd]6 [Gd][Bd] | [Fd]2 [Gd][Bd] [Fd]2 (GF) | [Ec]6 [Ec][Ec] | %14
w: ||||
w: ||||
w: work must go on and *|Till the world|for the Lord is won, *|er tri- umphs|
w: ||||
 [Ac][GB][Ac][Bd] [ce]2 [Ac][Ac] | [Bd][=Ac][Bd][ce] [df]2 [Bd][Bd] | %16
w: ||
w: ||
w: must be gained, Great- er heights in|love a- ttained, Till the glor- ious|
w: ||
 [Ac][GB][Ac][Bd] [ce]2 [Bd]2 | (z2 [ec']2 [ca]6) |] %18
w: ||
w: ||
w: day of God shall dawn. *||
w: ||
V:2
 x2 | x8 | x8 | x8 | x8 | x8 | x8 | x8 | [Bd]6 || x2 | x6 c2 | x8 | x6 d2 | x8 | x8 | x8 | x8 | %17
w: ||||||||are.|||||||||
w: ||||||||in.|||||||||
w: ||||||||deed.||on,||Great-|||||
w: ||||||||know.|||||||||
 [Ac]6 x4 |] %18
w: |
w: |
w: |
w: |
V:3
 z2 | A,,2 [E,A,C]2 E,,2 [E,A,C]2 | A,,2 [E,A,C]2 E,,2 [E,A,C]2 | B,,2 [E,G,B,D]2 E,,2 [E,G,B,D]2 | %4
 (A,,2 [E,A,C]2 E,,2) [E,A,C]2 | A,,2 [E,A,C]2 E,,2 [E,A,C]2 | A,,2 [E,A,C]2 E,,2 [E,A,C]2 | %7
 B,,2 [F,A,B,=D]2 B,,2 [F,A,B,D]2 | ([E,,E,]2 [E,B,D]2 [E,CD]2) || [E,G,]2 | %10
 A,,2 [E,A,C]2 E,,2 [E,A,C]2 | (B,,2 [E,G,B,D]2 E,,2) [E,G,B,D]2 | %12
 B,,2 [E,G,B,D]2 E,,2 [E,G,B,D]2 | (A,,2 [E,A,C]2 E,,2) [E,A,C]2 | C,2 [E,A,C]2 A,,2 [E,A,C]2 | %15
 [D,,D,]2 [F,B,D]2 [B,,B,]2 z2 | [E,,E,]2 [E,A,C]2 [E,,E,]2 [E,G,B,D]2 | %17
 ([A,,A,]2 [E,A,C]2 [A,,A,]6) |] %18

